X: 6
T: McKenna's
M: 6/8
L: 1/8
R: jig
K: Dmaj
|: EAA A (3B/c/d | cAG E2 D | EFG EFG | EAF GED |
EAA A (3B/c/d | cAG Ecd | cBc ABG | FDD D3 :|
|: fdd dcd | fdd d2 e | fdd e2 d | cAA A2 e | 
fga efg | fed fed | cBc ABG | FDD D3 :|
